svgs/regular/monument.svg

<svg xmlns="http://www.w3.org/2000/svg" viewBox="0 0 384 512"><!--! Font Awesome Pro 6.1.1 by @fontawesome - https://fontawesome.com License - https://fontawesome.com/license (Commercial License) Copyright 2022 Fonticons, Inc. --><path d="M216 288C229.3 288 240 298.7 240 312C240 325.3 229.3 336 216 336H168C154.7 336 144 325.3 144 312C144 298.7 154.7 288 168 288H216zM175 7.029C184.4-2.343 199.6-2.343 208.1 7.029L288.1 87.03C292.7 90.8 295.2 95.73 295.8 101L341.2 464H360C373.3 464 384 474.7 384 488C384 501.3 373.3 512 360 512H24C10.75 512 0 501.3 0 488C0 474.7 10.75 464 24 464H42.81L88.19 101C88.85 95.73 91.26 90.8 95.03 87.03L175 7.029zM192 57.94L134.8 115.1L91.19 464H292.8L249.2 115.1L192 57.94z"/></svg>

<svg xmlns="http://www.w3.org/2000/svg" viewBox="0 0 384 512"><!--! Font Awesome Pro 6.5.1 by @fontawesome - https://fontawesome.com License - https://fontawesome.com/license (Commercial License) Copyright 2023 Fonticons, Inc. --><path d="M175 7c9.4-9.4 24.6-9.4 33.9 0l80 80c3.8 3.8 6.2 8.7 6.8 14l41.4 331H288.8L249.2 115.1 192 57.9l-57.2 57.2L95.2 432H46.8L88.2 101c.7-5.3 3.1-10.2 6.8-14L175 7zM42.8 464H91.2 292.8h48.4H360c13.3 0 24 10.7 24 24s-10.7 24-24 24H320 64 24c-13.3 0-24-10.7-24-24s10.7-24 24-24H42.8zM144 312c0-13.3 10.7-24 24-24h48c13.3 0 24 10.7 24 24s-10.7 24-24 24H168c-13.3 0-24-10.7-24-24z"/></svg>
